X: 28926
T: Näcken Valsen
R: waltz
M: 3/4
K: Eminor
|:E2 GB ef|g/f/g f2 e2|f/g/f e2 ^d2|ef ga b2|A2 ce ab|a/b/a g2 f2|B/c/B ^d2 f2|e4 z2:|
|:e2 e^d ef|g2 f2 e2|de d2 c2|B4 z2|A2 A^G AB|c2 B2 A2|G2 G2 F2|E4 B2|
e2 e^d ef|g2 f2 e2|f2 f^e fg|a2 g2 f2|g2 gf ga|b2 a2 g2|g2 f2 B2|e4 z2:|
g3 f e2|f3 e ^d2|e4 e2|e2 b2 g2|f4 f2|f2 ^d2 f2|e4 e2|e4 z2|
[g3b3] [fa] [e2g2]|[f3a3] [eg] [^d2f2]|[e4g4] [e2g2]|[e2g2] [b2d'2] [g2b2]|[f4a4] [f2a2]|[f2a2] [^d2f2] [f2a2]|[e4g4] [e2g2]|[e4g4] z2||

